assets/send_paste.svg

<svg height="23.373" viewBox="0 0 4.745 6.184" width="17.935" xmlns="http://www.w3.org/2000/svg" xmlns:xlink="http://www.w3.org/1999/xlink"><mask id="a" fill="#fff"><path d="m0 0h17.935v23.373h-17.935z" fill="#fff" fill-rule="evenodd" height="100%" width="100%"/></mask><path d="m16.316 20.64a1.09 1.09 0 0 1 -1.113 1.113h-12.471a1.09 1.09 0 0 1 -1.113-1.113l-.002-15.19c0-.634.48-1.114 1.115-1.114h1.62v1.078a2.735 2.735 0 0 0 2.731 2.733h3.767a2.736 2.736 0 0 0 2.732-2.733v-1.078h1.62c.635 0 1.114.48 1.114 1.115zm-10.346-17.906c0-.636.479-1.114 1.113-1.114h3.767c.635 0 1.113.478 1.113 1.114v2.68c0 .634-.478 1.113-1.113 1.113h-3.767a1.09 1.09 0 0 1 -1.113-1.113zm9.233-.016h-1.609l-.025-.252a2.757 2.757 0 0 0 -2.719-2.466h-3.767a2.757 2.757 0 0 0 -2.718 2.466l-.026.252h-1.607a2.735 2.735 0 0 0 -2.732 2.732v15.19a2.734 2.734 0 0 0 2.732 2.733h12.47a2.735 2.735 0 0 0 2.734-2.733l-.002-15.19a2.735 2.735 0 0 0 -2.731-2.732z" fill="#13cdc2" fill-rule="evenodd" mask="url(#a)" transform="scale(.26458)"/></svg>

<svg xmlns="http://www.w3.org/2000/svg" xmlns:xlink="http://www.w3.org/1999/xlink" viewBox="0 0 4.745 6.184" height="23.373" width="17.935">
  <defs>
    <path id="a" d="M0 0h17.935v23.373H0z"/>
  </defs>
  <g transform="matrix(.26458 0 0 .26458 0 0)" fill="none" fill-rule="evenodd">
    <mask id="b" fill="#fff">
      <use height="100%" width="100%" xlink:href="#a"/>
    </mask>
    <path d="M16.316 20.64a1.09 1.09 0 01-1.113 1.113H2.732a1.09 1.09 0 01-1.113-1.113L1.617 5.45c0-.634.48-1.114 1.115-1.114h1.62v1.078a2.735 2.735 0 002.731 2.733h3.767a2.736 2.736 0 002.732-2.733V4.336h1.62c.635 0 1.114.48 1.114 1.115zM5.97 2.734c0-.636.479-1.114 1.113-1.114h3.767c.635 0 1.113.478 1.113 1.114v2.68c0 .634-.478 1.113-1.113 1.113H7.083A1.09 1.09 0 015.97 5.414zm9.233-.016h-1.609l-.025-.252A2.757 2.757 0 0010.85 0H7.083a2.757 2.757 0 00-2.718 2.466l-.026.252H2.732A2.735 2.735 0 000 5.45V20.64a2.734 2.734 0 002.732 2.733h12.47a2.735 2.735 0 002.734-2.733l-.002-15.19a2.735 2.735 0 00-2.731-2.732z" mask="url(#b)" fill="#13cdc2"/>
  </g>
</svg>
